X:590
T:Miss Stewart-Robertson of Edradynate
R:Reel
C:Robert Petrie
B:The Athole Collection
M:C|
L:1/8
K:F
B|AFAc f2 cf|dfdA BGGB|1 AFAc f2 cf|dfcf AFF:|2 AFcA Bcde|
fcdB AFF:|
f|afge f2 cB|AcfA BGGf|afge f2 cB|Acfc AFFf|afge f2 cB|Acfc BGGB|
AFcA Bcde|fcdB AFF||

